X:0
T: Tiviot Bridge
C: Alexander Givan
M: 6/8
K: A
S: Gow & Shepherd: Mrs. Elliot's (Tiviotbank) reel and Mr. Douglas of Springwood Park's Strathspey
f|ecAE2A|F2AE2A|EFEE2c|d2cB2A|
ecAE2A|F2AE2A|!turn!d2f ecA|!trill!B3 A2:|
f|ecA Ace|!trill!f>gf fga|ecA AcA|BGEE2f|
ecA Ace|agf edc|!turn!d2f ecA|!trill!B3 A2f|
ecA Ace|!trill!f>gf fga|ecA AcA|BGEE2f|
ece fdf|agf edc|dfa ecA|!trill!B3 A2|]

